static/img/kroki/65be1ab58d715b521c130f51d31cefe5.svg

<?xml version="1.0" encoding="us-ascii" standalone="no"?><svg xmlns="http://www.w3.org/2000/svg" xmlns:xlink="http://www.w3.org/1999/xlink" contentStyleType="text/css" height="152px" preserveAspectRatio="none" style="width:442px;height:152px;" version="1.1" viewBox="0 0 442 152" width="442px" zoomAndPan="magnify"><defs/><g><!--class kubernetes_cluster--><g id="elem_kubernetes_cluster"><rect codeLine="22" fill="#3D176E" height="39.7891" id="kubernetes_cluster" rx="2.5" ry="2.5" style="stroke:#000D19;stroke-width:0.5;" width="201" x="120.5" y="7"/><ellipse cx="135.5" cy="26.8945" fill="#ADD1B2" rx="11" ry="11" style="stroke:#181818;stroke-width:1.0;"/><path d="M138.4688,32.5352 Q137.8906,32.832 137.25,32.9727 Q136.6094,33.1289 135.9063,33.1289 Q133.4063,33.1289 132.0781,31.4883 Q130.7656,29.832 130.7656,26.707 Q130.7656,23.582 132.0781,21.9258 Q133.4063,20.2695 135.9063,20.2695 Q136.6094,20.2695 137.25,20.4258 Q137.9063,20.582 138.4688,20.8789 L138.4688,23.5977 Q137.8438,23.0195 137.25,22.7539 Q136.6563,22.4727 136.0313,22.4727 Q134.6875,22.4727 134,23.5508 Q133.3125,24.6133 133.3125,26.707 Q133.3125,28.8008 134,29.8789 Q134.6875,30.9414 136.0313,30.9414 Q136.6563,30.9414 137.25,30.6758 Q137.8438,30.3945 138.4688,29.8164 L138.4688,32.5352 Z " fill="#000000"/><text fill="#D9B8FF" font-family="Helvetica" font-size="17" lengthAdjust="spacing" textLength="159" x="154.5" y="32.7798">kubernetes_cluster</text></g><!--class kubernetes_mutating_webhook_configuration--><g id="elem_kubernetes_mutating_webhook_configuration"><rect codeLine="24" fill="#3D176E" height="39.7891" id="kubernetes_mutating_webhook_configuration" rx="2.5" ry="2.5" style="stroke:#000D19;stroke-width:0.5;" width="428" x="7" y="106.79"/><ellipse cx="22" cy="126.6845" fill="#ADD1B2" rx="11" ry="11" style="stroke:#181818;stroke-width:1.0;"/><path d="M24.9688,132.3252 Q24.3906,132.622 23.75,132.7627 Q23.1094,132.9189 22.4063,132.9189 Q19.9063,132.9189 18.5781,131.2783 Q17.2656,129.622 17.2656,126.497 Q17.2656,123.372 18.5781,121.7158 Q19.9063,120.0595 22.4063,120.0595 Q23.1094,120.0595 23.75,120.2158 Q24.4063,120.372 24.9688,120.6689 L24.9688,123.3877 Q24.3438,122.8095 23.75,122.5439 Q23.1563,122.2627 22.5313,122.2627 Q21.1875,122.2627 20.5,123.3408 Q19.8125,124.4033 19.8125,126.497 Q19.8125,128.5908 20.5,129.6689 Q21.1875,130.7314 22.5313,130.7314 Q23.1563,130.7314 23.75,130.4658 Q24.3438,130.1845 24.9688,129.6064 L24.9688,132.3252 Z " fill="#000000"/><text fill="#D9B8FF" font-family="Helvetica" font-size="17" lengthAdjust="spacing" textLength="386" x="41" y="132.5698">kubernetes_mutating_webhook_configuration</text></g><!--link kubernetes_cluster to kubernetes_mutating_webhook_configuration--><g id="link_kubernetes_cluster_kubernetes_mutating_webhook_configuration"><path codeLine="26" d="M221,47.22 C221,62.49 221,83.92 221,100.53 " fill="none" id="kubernetes_cluster-to-kubernetes_mutating_webhook_configuration" style="stroke:#1A83AF;stroke-width:2.0;"/><polygon fill="#1A83AF" points="221,105.41,225,96.41,221,100.41,217,96.41,221,105.41" style="stroke:#1A83AF;stroke-width:2.0;"/></g><!--SRC=[ZP9FIyD04CNl_HGBFHSQWpQv2B5Gz5B4UXC9c-niioJPARCJInM_kqchiYRzutNURzwy6QOm2WJK6zw96keCo8rSQUn6agn5GeJRELP8OgorrE6iBoxGyaLWAMiGzr2z0PjSzeddmkIb1UV4bIVToRnS4pPM7UoPf7Mj19OzQbv9vn9cCbd3u8LHSHPftIVxfkDG1RCR66182kWRcKwdAeZxoCLHP_V-9LRc7KJW7ss938EOWn5xwcpAZl123XRzqKzcV9HA6RiMrrxjwP29BD2V-ggG2hSThMNb_36EWG1vju7vO2k88wLdH-67Kt3UNKwKJVke5XXScbTDroO-Hfz3iMvOSXihtK9M89PfZbQRTKDj5Us-vuZLv6KS956OB5udj_zt-m80]--></g></svg>

<svg xmlns="http://www.w3.org/2000/svg" width="442" height="152" preserveAspectRatio="none" style="width:442px;height:152px"><rect width="201" height="39.789" x="120.5" y="7" fill="#3D176E" rx="2.5" ry="2.5" style="stroke:#000d19;stroke-width:.5"/><circle cx="135.5" cy="26.895" r="11" fill="#ADD1B2" style="stroke:#181818;stroke-width:1"/><path d="M138.469 32.535q-.578.297-1.219.438-.64.156-1.344.156-2.5 0-3.828-1.64-1.312-1.657-1.312-4.782t1.312-4.781q1.328-1.656 3.828-1.656.703 0 1.344.156.656.156 1.219.453v2.719q-.625-.578-1.219-.844-.594-.281-1.219-.281-1.344 0-2.031 1.078-.688 1.062-.688 3.156 0 2.094.688 3.172.688 1.062 2.031 1.062.625 0 1.219-.265.594-.281 1.219-.86v2.72Z"/><text x="154.5" y="32.78" fill="#D9B8FF" font-family="Helvetica" font-size="17" textLength="159">kubernetes_cluster</text><rect width="428" height="39.789" x="7" y="106.79" fill="#3D176E" rx="2.5" ry="2.5" style="stroke:#000d19;stroke-width:.5"/><circle cx="22" cy="126.684" r="11" fill="#ADD1B2" style="stroke:#181818;stroke-width:1"/><path d="M24.969 132.325q-.578.297-1.219.438-.64.156-1.344.156-2.5 0-3.828-1.64-1.312-1.657-1.312-4.782t1.312-4.781q1.328-1.656 3.828-1.656.703 0 1.344.156.656.156 1.219.453v2.719q-.625-.579-1.219-.844-.594-.281-1.219-.281-1.343 0-2.031 1.078-.688 1.062-.688 3.156 0 2.094.688 3.172.688 1.062 2.031 1.062.625 0 1.219-.265.594-.281 1.219-.86v2.72Z"/><text x="41" y="132.57" fill="#D9B8FF" font-family="Helvetica" font-size="17" textLength="386">kubernetes_mutating_webhook_configuration</text><path fill="none" d="M221 47.22v53.31" style="stroke:#1a83af;stroke-width:2"/><path fill="#1A83AF" d="m221 105.41 4-9-4 4-4-4 4 9z" style="stroke:#1a83af;stroke-width:2"/></svg>
